public/svg/tpa-logo.svg

<svg width="208" height="20" fill="none" xmlns="http://www.w3.org/2000/svg"><g clip-path="url(#a)"><path d="M115.3 9.6543h-1.751v1.6278h1.751V9.6543ZM115.3 8.02637h-1.751V9.6541h1.751V8.02637ZM115.3 6.39844h-1.751V8.0262h1.751V6.39844Z" stroke="#C9CACA" stroke-width=".1856" stroke-miterlimit="10" stroke-dasharray="0.56 0.56"/><path d="M115.3 4.771h-1.751v1.62775h1.751V4.771ZM115.3 3.14307h-1.751v1.62775h1.751V3.14307ZM115.3 1.51514h-1.751V3.1429h1.751V1.51514ZM115.3 11.2817h-1.751v1.6278h1.751v-1.6278ZM115.3 12.9414h-1.751v1.6278h1.751v-1.6278ZM115.3 14.5693h-1.751v1.6278h1.751v-1.6278ZM115.3 16.1973h-1.751v1.6277h1.751v-1.6277Z" stroke="#C9CACA" stroke-width=".1856" stroke-miterlimit="10" stroke-dasharray="0.56 0.56"/><path d="M115.3 17.8247h-1.751v1.6278h1.751v-1.6278Z" stroke="#C9CACA" stroke-width=".1856" stroke-miterlimit="10" stroke-dasharray="0.56 0.56"/><path d="M-.0778809 5.91992v2.23417H3.5266v8.80901h2.60895V8.15409h3.70747V5.91992H-.0778809ZM33.5983 14.8246c-2.0254 0-3.6388-1.5321-3.6388-3.3832 0-1.88311 1.6477-3.38319 3.6388-3.38319.9955 0 1.9224.383 2.5746.98942l1.6821-1.56392c-1.0985-1.02133-2.5746-1.62775-4.2567-1.62775-3.3299 0-6.0075 2.4895-6.0075 5.58544 0 3.0959 2.6776 5.5854 6.0075 5.5854 1.6477 0 3.1582-.6383 4.2567-1.6278l-1.6821-1.5639c-.6522.6064-1.5448.9895-2.5746.9895ZM50.1101 5.91992v4.46838h-4.8403V5.91992h-2.609v4.46838h-2.403v2.2341h2.403v4.3088h2.609v-4.3088h4.8403v4.3088h2.6089V5.91992h-2.6089ZM17.2235 12.4948h5.5955v-2.1704h-5.5955V8.09025h6.385V5.91992h-8.9597v4.40448h-2.403v2.1704h2.403v4.4683h9.0284v-2.1703h-6.4537v-2.298ZM79.1521 5.91992h-2.6433V16.9631h8.5478v-2.2023h-5.9045V5.91992ZM110.322 5.91992l-2.883 4.43638-2.815-4.43638h-3.056l4.566 6.67058v4.4045h2.609v-4.4364l4.566-6.63868h-2.987ZM96.3506 5.85596h-2.403l-3.0552 6.70244h-3.3985v2.2342h2.403l-.9955 2.2023h2.6776l.9612-2.2023h5.2522l.9612 2.2023H101.5L96.3506 5.85596Zm-2.9179 6.67054 1.6478-3.76613 1.6477 3.76613h-3.2955ZM72.6297 8.18601c-.206-.47875-.5149-.86176-.8925-1.21284-.3776-.35108-.8582-.60642-1.4075-.766-.5492-.1915-1.2015-.28725-1.9224-.28725h-6.0761v5.55348h-2.403v2.1704h2.403v3.3193h2.609v-3.3193h3.1925c.6522 0 1.3045-.0958 1.8881-.2554.5835-.1596 1.0985-.4149 1.5104-.7341.4463-.3191.7895-.734 1.0298-1.2128.2403-.4787.3777-1.0532.3777-1.69158v-.03191c0-.54259-.103-1.05325-.309-1.532Zm-2.3343 1.62774c0 .47875-.1717.86175-.5493 1.18095-.3776.3191-.8582.4787-1.5104.4787h-3.2612V8.09025h3.2269c.6522 0 1.1671.12768 1.5447.41493.3433.31916.5493.73407.5493 1.30857ZM125.77 5.76025h2.437l5.15 11.23465h-2.747l-1.098-2.4895h-5.081l-1.098 2.4895h-2.678l5.115-11.23465Zm2.781 6.57485-1.579-3.60661-1.614 3.60661h3.193ZM139.948 17.1865c-.687 0-1.339-.1277-1.923-.3511-.583-.2234-1.098-.5426-1.51-.9575-.412-.4149-.755-.8617-.996-1.4043-.24-.5426-.377-1.1171-.377-1.7235s.137-1.1809.377-1.7235c.241-.5426.584-1.0214.996-1.43628.412-.41491.927-.73408 1.51-.9575.584-.22341 1.236-.35108 1.957-.35108.858 0 1.579.12767 2.163.383.583.25534 1.064.60642 1.51 1.05325l-1.579 1.59581c-.309-.2872-.618-.5106-.927-.7021-.309-.1596-.721-.2554-1.167-.2554-.343 0-.618.0639-.892.1915-.275.1277-.515.2873-.687.5107-.206.2234-.343.4468-.446.7341-.103.2872-.172.5745-.172.8936v.032c0 .3191.069.6383.172.9255.103.2873.274.5426.48.766.206.2235.447.383.721.5107.275.1277.618.1915.961.1915.447 0 .824-.0957 1.133-.2553.344-.1596.653-.383.961-.6703l1.545 1.4363c-.446.4468-.961.8298-1.545 1.1171-.617.3191-1.338.4468-2.265.4468ZM149.182 17.1545c-.446 0-.858-.0638-1.236-.1596-.377-.0957-.721-.2872-.995-.5106-.275-.2234-.515-.5107-.687-.8299-.171-.3191-.24-.7021-.24-1.117v-.032c0-.4787.103-.8617.275-1.2128.171-.3511.446-.6383.755-.8617.309-.2235.721-.383 1.167-.5107.446-.0958.961-.1596 1.51-.1596.481 0 .893.0319 1.236.0958.344.0638.687.1595 1.03.2553v-.1596c0-.5107-.172-.8937-.515-1.149-.343-.2553-.824-.383-1.476-.383-.515 0-.961.0319-1.339.1277-.377.0638-.789.1915-1.201.3511l-.653-1.85121c.515-.1915 1.03-.35108 1.58-.47875.549-.12766 1.201-.1915 1.991-.1915.721 0 1.338.09576 1.853.25534.515.15958.927.41491 1.271.70216.343.31917.583.70216.755 1.18096.171.4787.24.9894.24 1.5639v4.9471h-2.54v-.9256c-.309.3191-.687.6064-1.133.7979-.446.1915-.996.2553-1.648.2553Zm.79-1.6596c.618 0 1.098-.1277 1.476-.415.377-.2872.549-.6383.549-1.0851v-.4149c-.24-.0958-.481-.1596-.755-.2235-.275-.0638-.584-.0957-.893-.0957-.549 0-.995.0957-1.339.3192-.308.1915-.48.4787-.48.8936v.0319c0 .3192.137.5745.378.766.24.1915.652.2235 1.064.2235ZM161.643 17.1547c-.549 0-1.064-.0957-1.579-.2872-.515-.1915-.961-.4788-1.339-.8618-.377-.383-.686-.8298-.927-1.3724-.24-.5426-.343-1.1809-.343-1.8831v-.0319c0-.7022.103-1.3405.343-1.8831.241-.5426.55-1.02133.927-1.37242.378-.383.824-.67025 1.339-.86175s1.03-.28725 1.579-.28725c.687 0 1.27.12766 1.717.383.446.25533.823.54259 1.132.89367V5.37744h2.609V17.027h-2.609v-1.2128c-.309.4149-.72.7341-1.167.9894-.412.2234-.995.3511-1.682.3511Zm.687-2.0427c.309 0 .583-.0638.858-.1595.275-.1277.515-.2873.686-.4788.206-.2234.344-.4468.481-.766.103-.2872.172-.6064.172-.9575v-.0319c0-.3511-.069-.6703-.172-.9575-.137-.2873-.275-.5426-.481-.766-.205-.1915-.446-.3511-.686-.4788-.275-.0957-.549-.1596-.858-.1596-.309 0-.584.0639-.859.1596-.274.1277-.514.2873-.72.4788-.206.2234-.378.4468-.481.7341-.137.2872-.172.6064-.172.9575v.0319c0 .3511.069.6702.172.9575.103.2872.275.5426.481.766.206.1915.446.3511.72.4787.275.1277.55.1915.859.1915ZM174.997 17.1865c-.687 0-1.339-.0958-1.922-.3192-.584-.2234-1.099-.5106-1.545-.8936-.412-.383-.755-.8618-.996-1.4044-.24-.5426-.377-1.149-.377-1.7873v-.0319c0-.6064.103-1.1809.343-1.7235.206-.5426.549-1.0214.927-1.43628.412-.41491.892-.73408 1.442-.9575.549-.22341 1.167-.35108 1.853-.35108.756 0 1.442.12767 1.991.383.55.25534 1.03.60641 1.408 1.02133.378.41493.652.92563.824 1.50013.171.5745.274 1.149.274 1.7554v.3191c0 .0958 0 .2235-.034.3192H172.8c.137.5426.378.9575.79 1.2448.412.2872.892.4149 1.476.4149.446 0 .824-.0639 1.167-.2234.343-.1277.686-.3511 1.064-.6703l1.476 1.2128c-.446.5107-.961.8937-1.579 1.181-.618.2872-1.373.4468-2.197.4468Zm1.682-5.1386c-.069-.5426-.275-.9894-.618-1.3086-.343-.3191-.755-.5106-1.339-.5106-.549 0-.995.1595-1.338.4787-.344.3192-.55.766-.653 1.3405h3.948ZM182.275 8.4415h2.609v1.21283c.137-.1915.309-.35107.48-.51066.172-.15958.378-.31917.584-.44684.206-.12766.446-.22341.721-.31917.274-.06383.583-.12766.892-.12766.618 0 1.133.12767 1.579.35109.447.22341.79.5745 1.03 1.02134.412-.44684.858-.79793 1.339-1.02134.481-.22342 1.064-.35109 1.682-.35109.961 0 1.717.25533 2.3.79792.549.54258.824 1.30858.824 2.32988v5.5855h-2.609v-4.7556c0-.5745-.137-1.0214-.412-1.3086-.275-.2873-.652-.4468-1.133-.4468-.48 0-.892.1595-1.167.4468-.275.2872-.412.7341-.412 1.3086v4.7556h-2.609v-4.7556c0-.5745-.137-1.0214-.377-1.3086-.275-.2873-.653-.4468-1.133-.4468-.481 0-.893.1595-1.167.4468-.275.2872-.412.7341-.412 1.3086v4.7556h-2.609V8.4415ZM201.464 19.6123c-.48 0-.892-.0639-1.27-.1596-.378-.0958-.721-.2554-1.03-.4469l.858-1.7554c.172.0958.344.1596.55.2553.206.0958.377.0958.549.0958.24 0 .412-.0319.549-.1277.138-.0638.241-.2234.378-.4468l-3.605-8.58559h2.747l2.094 5.80879 1.991-5.80879h2.712l-3.502 8.77709c-.172.4468-.343.7979-.549 1.1171-.206.3191-.412.5426-.652.7341-.241.1915-.515.3191-.79.4149-.275.0957-.618.1277-1.03.1277Z" fill="#070130"/></g><defs><clipPath id="a"><path fill="#fff" d="M0 0h208v20H0z"/></clipPath></defs></svg>

<svg width="208" height="20" viewBox="0 0 208 20" fill="none" xmlns="http://www.w3.org/2000/svg">
<g clip-path="url(#clip0_983_742)">
<path d="M-0.078125 5.91992V8.15409H3.52635V16.9631H6.13531V8.15409H9.84277V5.91992H-0.078125Z" fill="#070130"/>
<path d="M33.5978 14.8241C31.5724 14.8241 29.959 13.2921 29.959 11.4409C29.959 9.55781 31.6068 8.05772 33.5978 8.05772C34.5933 8.05772 35.5202 8.44072 36.1724 9.04714L37.8545 7.48322C36.756 6.46189 35.2799 5.85547 33.5978 5.85547C30.2679 5.85547 27.5903 8.34497 27.5903 11.4409C27.5903 14.5368 30.2679 17.0263 33.5978 17.0263C35.2456 17.0263 36.756 16.388 37.8545 15.3986L36.1724 13.8346C35.5202 14.4411 34.6276 14.8241 33.5978 14.8241Z" fill="#070130"/>
<path d="M50.1101 5.91992V10.3883H45.2698V5.91992H42.6608V10.3883H40.2578V12.6224H42.6608V16.9312H45.2698V12.6224H50.1101V16.9312H52.719V5.91992H50.1101Z" fill="#070130"/>
<path d="M17.2232 12.4948H22.8187V10.3244H17.2232V8.09025H23.6083V5.91992H14.6486V10.3244H12.2456V12.4948H14.6486V16.9631H23.6769V14.7928H17.2232V12.4948Z" fill="#070130"/>
<path d="M79.1521 5.91992H76.5088V16.9631H85.0566V14.7608H79.1521V5.91992Z" fill="#070130"/>
<path d="M110.322 5.91992L107.439 10.3563L104.624 5.91992H101.568L106.134 12.5905V16.995H108.743V12.5586L113.309 5.91992H110.322Z" fill="#070130"/>
<path d="M96.3504 5.85547H93.9474L90.8922 12.558H87.4937V14.7921H89.8966L88.9011 16.9944H91.5787L92.5399 14.7921H97.7921L98.7533 16.9944H101.5L96.3504 5.85547ZM93.4325 12.526L95.0802 8.75988L96.728 12.526H93.4325Z" fill="#070130"/>
<path d="M72.6292 8.18601C72.4232 7.70726 72.1143 7.32425 71.7367 6.97317C71.3591 6.62209 70.8785 6.36675 70.3292 6.20717C69.78 6.01567 69.1277 5.91992 68.4068 5.91992H62.3307V11.4734H59.9277V13.6438H62.3307V16.9631H64.9397V13.6438H68.1322C68.7844 13.6438 69.4367 13.548 70.0203 13.3884C70.6038 13.2288 71.1188 12.9735 71.5307 12.6543C71.977 12.3352 72.3203 11.9203 72.5606 11.4415C72.8009 10.9628 72.9382 10.3883 72.9382 9.74992V9.71801C72.9382 9.17542 72.8352 8.66476 72.6292 8.18601ZM70.2949 9.81375C70.2949 10.2925 70.1233 10.6755 69.7456 10.9947C69.368 11.3138 68.8874 11.4734 68.2352 11.4734H64.974V8.09025H68.2009C68.8531 8.09025 69.368 8.21793 69.7456 8.50518C70.0889 8.82434 70.2949 9.23925 70.2949 9.81375Z" fill="#070130"/>
<path d="M125.77 5.75977H128.207L133.357 16.9944H130.61L129.512 14.5049H124.431L123.333 16.9944H120.655L125.77 5.75977ZM128.551 12.3346L126.972 8.728L125.358 12.3346H128.551Z" fill="#070130"/>
<path d="M139.948 17.186C139.261 17.186 138.609 17.0583 138.025 16.8349C137.442 16.6115 136.927 16.2923 136.515 15.8774C136.103 15.4625 135.76 15.0157 135.519 14.4731C135.279 13.9305 135.142 13.356 135.142 12.7496C135.142 12.1432 135.279 11.5687 135.519 11.0261C135.76 10.4835 136.103 10.0048 136.515 9.58984C136.927 9.17492 137.442 8.85575 138.025 8.63234C138.609 8.40892 139.261 8.28125 139.982 8.28125C140.84 8.28125 141.561 8.40892 142.145 8.66425C142.728 8.91959 143.209 9.27067 143.655 9.7175L142.076 11.3133C141.767 11.0261 141.458 10.8027 141.149 10.6112C140.84 10.4516 140.428 10.3558 139.982 10.3558C139.639 10.3558 139.364 10.4197 139.089 10.5473C138.815 10.675 138.574 10.8346 138.403 11.058C138.197 11.2814 138.06 11.5048 137.957 11.7921C137.854 12.0793 137.785 12.3666 137.785 12.6857V12.7177C137.785 13.0368 137.854 13.356 137.957 13.6432C138.06 13.9305 138.231 14.1858 138.437 14.4093C138.643 14.6327 138.883 14.7923 139.158 14.9199C139.433 15.0476 139.776 15.1114 140.119 15.1114C140.565 15.1114 140.943 15.0157 141.252 14.8561C141.595 14.6965 141.904 14.4731 142.213 14.1858L143.758 15.6221C143.312 16.0689 142.797 16.4519 142.213 16.7392C141.595 17.0583 140.874 17.186 139.948 17.186Z" fill="#070130"/>
<path d="M149.182 17.154C148.736 17.154 148.324 17.0902 147.946 16.9945C147.569 16.8987 147.225 16.7072 146.951 16.4838C146.676 16.2604 146.436 15.9731 146.264 15.654C146.093 15.3348 146.024 14.9518 146.024 14.5369V14.505C146.024 14.0262 146.127 13.6432 146.299 13.2921C146.47 12.941 146.745 12.6538 147.054 12.4304C147.363 12.207 147.775 12.0474 148.221 11.9197C148.667 11.824 149.182 11.7601 149.731 11.7601C150.212 11.7601 150.624 11.792 150.967 11.8559C151.311 11.9197 151.654 12.0155 151.997 12.1112V11.9516C151.997 11.441 151.825 11.058 151.482 10.8026C151.139 10.5473 150.658 10.4196 150.006 10.4196C149.491 10.4196 149.045 10.4515 148.667 10.5473C148.29 10.6111 147.878 10.7388 147.466 10.8984L146.813 9.04721C147.328 8.85571 147.843 8.69612 148.393 8.56846C148.942 8.44079 149.594 8.37695 150.384 8.37695C151.105 8.37695 151.722 8.47271 152.237 8.63229C152.752 8.79188 153.164 9.0472 153.508 9.33445C153.851 9.65362 154.091 10.0366 154.263 10.5154C154.434 10.9941 154.503 11.5048 154.503 12.0793V17.0264H151.963V16.1008C151.654 16.42 151.276 16.7072 150.83 16.8987C150.384 17.0902 149.834 17.154 149.182 17.154ZM149.972 15.4944C150.59 15.4944 151.07 15.3667 151.448 15.0795C151.825 14.7922 151.997 14.4411 151.997 13.9943V13.5794C151.757 13.4836 151.516 13.4198 151.242 13.356C150.967 13.2921 150.658 13.2602 150.349 13.2602C149.8 13.2602 149.354 13.356 149.01 13.5794C148.702 13.7709 148.53 14.0581 148.53 14.473V14.505C148.53 14.8241 148.667 15.0795 148.908 15.271C149.148 15.4625 149.56 15.4944 149.972 15.4944Z" fill="#070130"/>
<path d="M161.643 17.1542C161.094 17.1542 160.579 17.0585 160.064 16.867C159.549 16.6755 159.103 16.3882 158.725 16.0052C158.348 15.6222 158.039 15.1754 157.798 14.6328C157.558 14.0902 157.455 13.4519 157.455 12.7497V12.7178C157.455 12.0156 157.558 11.3773 157.798 10.8347C158.039 10.2921 158.348 9.81338 158.725 9.4623C159.103 9.0793 159.549 8.79204 160.064 8.60054C160.579 8.40904 161.094 8.31329 161.643 8.31329C162.33 8.31329 162.913 8.44095 163.36 8.69629C163.806 8.95162 164.183 9.23888 164.492 9.58996V5.37695H167.101V17.0265H164.492V15.8137C164.183 16.2286 163.772 16.5478 163.325 16.8031C162.913 17.0266 162.33 17.1542 161.643 17.1542ZM162.33 15.1115C162.639 15.1115 162.913 15.0477 163.188 14.952C163.463 14.8243 163.703 14.6647 163.874 14.4732C164.08 14.2498 164.218 14.0264 164.355 13.7072C164.458 13.42 164.527 13.1008 164.527 12.7497V12.7178C164.527 12.3667 164.458 12.0475 164.355 11.7603C164.218 11.473 164.08 11.2177 163.874 10.9943C163.669 10.8028 163.428 10.6432 163.188 10.5155C162.913 10.4198 162.639 10.356 162.33 10.356C162.021 10.356 161.746 10.4198 161.471 10.5155C161.197 10.6432 160.957 10.8028 160.751 10.9943C160.545 11.2177 160.373 11.4411 160.27 11.7284C160.133 12.0156 160.098 12.3348 160.098 12.6859V12.7178C160.098 13.0689 160.167 13.388 160.27 13.6753C160.373 13.9625 160.545 14.2179 160.751 14.4413C160.957 14.6328 161.197 14.7924 161.471 14.92C161.746 15.0477 162.021 15.1115 162.33 15.1115Z" fill="#070130"/>
<path d="M174.997 17.186C174.31 17.186 173.658 17.0903 173.075 16.8668C172.491 16.6434 171.976 16.3562 171.53 15.9732C171.118 15.5902 170.775 15.1114 170.534 14.5688C170.294 14.0263 170.157 13.4198 170.157 12.7815V12.7496C170.157 12.1432 170.26 11.5687 170.5 11.0261C170.706 10.4835 171.049 10.0048 171.427 9.58984C171.839 9.17492 172.319 8.85575 172.869 8.63234C173.418 8.40892 174.036 8.28125 174.722 8.28125C175.478 8.28125 176.164 8.40892 176.713 8.66425C177.263 8.91959 177.743 9.27067 178.121 9.68558C178.499 10.1005 178.773 10.6112 178.945 11.1857C179.116 11.7602 179.219 12.3347 179.219 12.9411C179.219 13.0368 179.219 13.1326 179.219 13.2603C179.219 13.356 179.219 13.4837 179.185 13.5794H172.8C172.937 14.122 173.178 14.5369 173.59 14.8242C174.002 15.1114 174.482 15.2391 175.066 15.2391C175.512 15.2391 175.89 15.1753 176.233 15.0157C176.576 14.888 176.919 14.6646 177.297 14.3454L178.773 15.5583C178.327 16.0689 177.812 16.4519 177.194 16.7392C176.576 17.0264 175.821 17.186 174.997 17.186ZM176.679 12.0474C176.61 11.5048 176.404 11.058 176.061 10.7388C175.718 10.4197 175.306 10.2282 174.722 10.2282C174.173 10.2282 173.727 10.3878 173.384 10.7069C173.04 11.0261 172.834 11.4729 172.731 12.0474H176.679Z" fill="#070130"/>
<path d="M182.274 8.4415H184.883V9.65433C185.021 9.46283 185.192 9.30326 185.364 9.14367C185.536 8.98409 185.742 8.8245 185.948 8.69683C186.154 8.56917 186.394 8.47342 186.668 8.37766C186.943 8.31383 187.252 8.25 187.561 8.25C188.179 8.25 188.694 8.37767 189.14 8.60109C189.586 8.8245 189.93 9.17559 190.17 9.62243C190.582 9.17559 191.028 8.8245 191.509 8.60109C191.989 8.37767 192.573 8.25 193.191 8.25C194.152 8.25 194.907 8.50533 195.491 9.04792C196.04 9.5905 196.315 10.3565 196.315 11.3778V16.9633H193.706V12.2077C193.706 11.6332 193.568 11.1863 193.294 10.8991C193.019 10.6118 192.642 10.4523 192.161 10.4523C191.68 10.4523 191.268 10.6118 190.994 10.8991C190.719 11.1863 190.582 11.6332 190.582 12.2077V16.9633H187.973V12.2077C187.973 11.6332 187.836 11.1863 187.595 10.8991C187.321 10.6118 186.943 10.4523 186.462 10.4523C185.982 10.4523 185.57 10.6118 185.295 10.8991C185.021 11.1863 184.883 11.6332 184.883 12.2077V16.9633H182.274V8.4415Z" fill="#070130"/>
<path d="M201.464 19.6123C200.984 19.6123 200.572 19.5484 200.194 19.4527C199.816 19.3569 199.473 19.1973 199.164 19.0058L200.022 17.2504C200.194 17.3462 200.366 17.41 200.572 17.5057C200.778 17.6015 200.949 17.6015 201.121 17.6015C201.361 17.6015 201.533 17.5696 201.67 17.4738C201.808 17.41 201.911 17.2504 202.048 17.027L198.443 8.44141H201.19L203.284 14.2502L205.275 8.44141H207.987L204.485 17.2185C204.313 17.6653 204.142 18.0164 203.936 18.3356C203.73 18.6547 203.524 18.8782 203.284 19.0697C203.043 19.2612 202.769 19.3888 202.494 19.4846C202.219 19.5803 201.876 19.6123 201.464 19.6123Z" fill="#070130"/>
</g>
<defs>
<clipPath id="clip0_983_742">
<rect width="208" height="20" fill="white"/>
</clipPath>
</defs>
</svg>
